X:411
T:41. THE BASTARD TUNES (tunes)
T:Banish Misfortune
M:6/8
R:Jig
K:D
|:e|\
"D"fed "A"cAG|"D"A2d "A"cAG|"D"F3 DED|"F#m"F3 "G"G3|\
"A"AGA "C"=cAG|"D"AGA d2e|fed "A"cAG|Adc "D"d2:|
|:e|\
"D"f2d dcd|f2g "A"agf|"C"e2=c cBc|e2f "G"gfe|\
"F#m"f2g agf|"Em"e2f gag|"D"fed "A"cAG|Adc "D"d2:|
|:e|\
"D"f2g "A"e2f|"G"d2e "C"=c2d|"A"A3 "G"G3|"D"FAF GED|\
"C"=c3 cAG|"D"AGA d2e|fed "A"cAG|Adc "D"d2:|
